packages/assets/static/images/icons/bold/quote--bold.svg

<svg width="24" height="24" viewBox="0 0 24 24" xmlns="http://www.w3.org/2000/svg">
<path d="M10.1934 3.85645L11.2451 5.35645L11.3994 5.57617L11.1689 5.71484C8.95692 7.03864 7.4933 8.36566 6.74023 9.68652C6.12801 10.7864 5.77562 11.9738 5.68359 13.252C6.17843 13.0014 6.72707 12.875 7.32715 12.875C8.33403 12.875 9.18171 13.2085 9.85059 13.8809C10.5659 14.5581 10.9189 15.4389 10.9189 16.5C10.9189 17.5659 10.542 18.466 9.78906 19.1816C9.03429 19.8988 8.06181 20.2499 6.89453 20.25C5.5051 20.25 4.36135 19.7418 3.48633 18.7256L3.47852 18.7168V18.7158C2.65034 17.6589 2.25 16.2446 2.25 14.5C2.25 12.4876 2.86522 10.5447 4.08496 8.67578C5.31126 6.79683 7.24761 5.16758 9.87207 3.7793L10.0664 3.67578L10.1934 3.85645ZM20.6523 3.85645L21.7051 5.35645L21.8594 5.57617L21.6279 5.71484C19.416 7.0386 17.9523 8.3657 17.1992 9.68652C16.587 10.7864 16.2346 11.9739 16.1426 13.252C16.6375 13.0013 17.1869 12.875 17.7871 12.875C18.794 12.8751 19.6417 13.2083 20.3105 13.8809L20.4404 14.0107C21.0684 14.6693 21.3789 15.5054 21.3789 16.5C21.3789 17.5659 21.0019 18.466 20.249 19.1816C19.4941 19.8991 18.5211 20.25 17.3535 20.25C15.9641 20.25 14.8203 19.7418 13.9453 18.7256L13.9385 18.7168C13.1098 17.6598 12.709 16.2451 12.709 14.5C12.709 12.4875 13.3251 10.5448 14.5449 8.67578C15.7712 6.79691 17.7067 5.16754 20.3311 3.7793L20.5264 3.67578L20.6523 3.85645Z" stroke="black" stroke-width="0.5"/>
</svg>

<svg viewBox="0 0 24 24" xmlns="http://www.w3.org/2000/svg" aria-hidden="true" fill="currentColor"><path d="m10.193 3.856 1.052 1.5.154.22-.23.139C8.957 7.039 7.493 8.365 6.74 9.687a8.5 8.5 0 0 0-1.056 3.565 3.6 3.6 0 0 1 1.643-.377c1.007 0 1.855.334 2.524 1.006.715.677 1.068 1.558 1.068 2.619 0 1.066-.377 1.966-1.13 2.682-.755.717-1.727 1.068-2.894 1.068-1.39 0-2.534-.508-3.409-1.524l-.007-.01C2.65 17.659 2.25 16.245 2.25 14.5c0-2.012.615-3.955 1.835-5.824 1.226-1.88 3.163-3.508 5.787-4.897l.194-.103zm10.46 0 1.052 1.5.154.22-.231.139c-2.212 1.324-3.676 2.65-4.429 3.972a8.5 8.5 0 0 0-1.056 3.565 3.6 3.6 0 0 1 1.644-.377c1.007 0 1.855.333 2.524 1.006l.13.13c.627.658.938 1.494.938 2.489 0 1.066-.377 1.966-1.13 2.682-.755.717-1.728 1.068-2.895 1.068-1.39 0-2.534-.508-3.409-1.524l-.007-.01c-.828-1.056-1.229-2.47-1.229-4.216 0-2.012.616-3.955 1.836-5.824 1.226-1.88 3.162-3.508 5.786-4.897l.195-.103z"/></svg>
